X:48
T:A Long Way From Home
O:england
M:C|
L:1/8
R:reel
K:D
~f3e d3B|ADFD ADFD|f2fe dfbf|afgf edBc|
dB~B2 BA^GB|ADFD ADFA|ba~a2 fd~d2|1 egfe d2de:|2 egfe d3c||
|:d2df ~a3z|abgb agfe|d2fd adfd|(3cBA eA fAec|
d2df a2~a2|abgb ~a3f|~g3e ~f3a|1 gfed cABc:|2 gfed cAce||


